X: 7
T: Cooley's
R: reel
M: 4/4
L: 1/8
K: Edor
|:"Em"EB{d}BA B2 EB|"Em"~B2 AB dBAG|"D" FDAD BDAD|"D"F/E/D FA dAFD|
"Em"EB{d}BA B2 EB|"Em"~B2 AB defg|"D"afef dBAF|[1"D"DEFD "Em"E2ED:|[2"D"DEFD "Em"E2gf||
|:"Em"eB ~B2 eBgB|"Em"eB ~B2 gedB|"D"A/A/A FA DAFA|"D"~A2 FA defg|
"Em"eB B/B/B eBgf|"Em"eB B/B/B defg|"D"{b}afef dBAF|[1"D"DEFD "Em"E2gf:|[2"D"DEFD "Em"E2ED|]
